X: 1
T: Mutt's Favourite
C: Jerry Holland
R: reel
Z: 2005 John Chambers <jc:trillian.mit.edu>
M: C|
L: 1/8
K: Ador
|: EAAc B2Ac | BAAg feea | EAAc B2Ac | BGGA BcdD | EAAc B2Ac | BAAg feef |
| gfgd e2eg | BGBc dBGB :: EA~A2 fA~A2 | gA~A2 aA~A2 | EAfA gAaA | fgdg BGGD :|
